public/payments/common/bank-transfer.svg

<svg width="100" height="42" viewBox="0 0 100 42" fill="none" xmlns="http://www.w3.org/2000/svg">
<path d="M38.5617 10.9279L23.6615 5.04004L8.76135 10.9279V14.3508H38.5617V10.9279Z" fill="white"/>
<path d="M16.4211 16.6099C16.8631 16.6099 17.2214 16.2883 17.2214 15.8911C17.2214 15.4937 16.8631 15.1722 16.4211 15.1722H11.6957C11.2536 15.1722 10.8955 15.4937 10.8955 15.8911C10.8955 16.2883 11.2536 16.6099 11.6957 16.6099H11.9625V26.8794H11.6957C11.2536 26.8794 10.8955 27.2009 10.8955 27.5982C10.8955 27.9954 11.2536 28.3173 11.6957 28.3173H16.4211C16.8631 28.3173 17.2214 27.9954 17.2214 27.5982C17.2214 27.2009 16.8631 26.8794 16.4211 26.8794H16.1543V16.6099H16.4211Z" fill="white"/>
<path d="M26.0241 16.6099C26.4663 16.6099 26.8246 16.2883 26.8246 15.8911C26.8246 15.4937 26.4663 15.1722 26.0241 15.1722H21.2987C20.857 15.1722 20.4987 15.4937 20.4987 15.8911C20.4987 16.2883 20.857 16.6099 21.2987 16.6099H21.5656V26.8794H21.2987C20.857 26.8794 20.4987 27.2009 20.4987 27.5982C20.4987 27.9954 20.857 28.3173 21.2987 28.3173H26.0241C26.4663 28.3173 26.8246 27.9954 26.8246 27.5982C26.8246 27.2009 26.4663 26.8794 26.0241 26.8794H25.7575V16.6099H26.0241Z" fill="white"/>
<path d="M35.78 16.6099C36.2217 16.6099 36.58 16.2883 36.58 15.8911C36.58 15.4937 36.2217 15.1722 35.78 15.1722H31.0545C30.6123 15.1722 30.254 15.4937 30.254 15.8911C30.254 16.2883 30.6123 16.6099 31.0545 16.6099H31.3211V26.8794H31.0545C30.6123 26.8794 30.254 27.2009 30.254 27.5982C30.254 27.9954 30.6123 28.3173 31.0545 28.3173H35.78C36.2217 28.3173 36.58 27.9954 36.58 27.5982C36.58 27.2009 36.2217 26.8794 35.78 26.8794H35.513V16.6099H35.78Z" fill="white"/>
<path d="M9.52338 30.9186H37.7995C38.2188 30.9186 38.5617 30.6105 38.5617 30.2344V29.8233C38.5617 29.4466 38.2188 29.1387 37.7995 29.1387H9.52338C9.10423 29.1387 8.76135 29.4466 8.76135 29.8233V30.2344C8.76135 30.6105 9.10423 30.9186 9.52338 30.9186Z" fill="white"/>
<path d="M39.7812 31.7404H7.54187C7.12254 31.7404 6.77966 32.0486 6.77966 32.4248V33.0408C6.77966 33.4177 7.12254 33.7259 7.54187 33.7259H39.7812C40.2003 33.7259 40.5432 33.4177 40.5432 33.0408V32.4248C40.5432 32.0486 40.2003 31.7404 39.7812 31.7404Z" fill="white"/>
<path d="M53.1188 15.3162C52.837 14.9807 52.4331 14.7477 51.9146 14.6109C52.3185 14.4328 52.6234 14.2005 52.8217 13.9057C53.0199 13.6112 53.1188 13.2963 53.1188 12.9676C53.1188 12.6118 53.0122 12.2763 52.7836 11.9475C52.5549 11.6192 52.2426 11.3796 51.8461 11.222C51.4497 11.0645 50.9163 10.9893 50.2609 10.9893H47.0292V18.7325H50.3143C50.8629 18.7325 51.3202 18.6912 51.7014 18.6023C52.0826 18.5131 52.3949 18.3903 52.6465 18.2191C52.8978 18.0544 53.1114 17.815 53.279 17.5002C53.4543 17.1854 53.5382 16.8496 53.5382 16.4868C53.5382 16.0347 53.401 15.6448 53.1188 15.3162ZM48.1649 11.9068H49.8951C50.5124 11.9068 50.9544 11.9411 51.206 12.0161C51.4573 12.0913 51.6556 12.2216 51.7927 12.4201C51.93 12.6118 51.9985 12.8376 51.9985 13.0979C51.9985 13.3717 51.9224 13.5976 51.7775 13.7757C51.6327 13.9537 51.4117 14.084 51.1221 14.1591C50.901 14.2205 50.5351 14.2482 50.0322 14.2482H48.1649V11.9068ZM52.1816 17.1439C52.0673 17.3356 51.9224 17.4796 51.7471 17.5755C51.5717 17.6783 51.3507 17.7468 51.0915 17.7875C50.9392 17.8082 50.68 17.8218 50.3143 17.8218H48.1649V15.1584H50.1617C50.7105 15.1584 51.1295 15.1998 51.4193 15.2886C51.7088 15.3776 51.9375 15.5282 52.1053 15.7405C52.2653 15.9527 52.3492 16.2061 52.3492 16.4936C52.3492 16.7403 52.2958 16.9522 52.1816 17.1439Z" fill="white"/>
<path d="M60.0849 18.0478C60.0395 17.8151 60.0165 17.2536 60.0165 16.3706V15.1039C60.0165 14.6795 60.0012 14.3918 59.9631 14.2276C59.9021 13.9606 59.7954 13.7482 59.6354 13.577C59.4829 13.406 59.239 13.2621 58.9037 13.1526C58.576 13.0363 58.1415 12.9812 57.608 12.9812C57.067 12.9812 56.5944 13.0498 56.1904 13.1801C55.7788 13.317 55.4663 13.502 55.2531 13.7482C55.0395 13.9948 54.8797 14.3168 54.788 14.7133L55.8246 14.8439C55.9388 14.4399 56.1143 14.1661 56.3505 14.0085C56.5868 13.851 56.9602 13.7757 57.4556 13.7757C57.9892 13.7757 58.3929 13.8854 58.6598 14.0977C58.858 14.2619 58.9571 14.5288 58.9571 14.919C58.9571 14.9532 58.9571 15.0354 58.9495 15.1656C58.5454 15.2956 57.9131 15.4055 57.0592 15.4939C56.64 15.5421 56.3276 15.59 56.1219 15.6378C55.8399 15.7131 55.5883 15.8159 55.3595 15.9527C55.1309 16.0897 54.9482 16.2746 54.8109 16.5005C54.6738 16.7264 54.6051 16.9798 54.6051 17.2536C54.6051 17.7261 54.7956 18.1094 55.1614 18.4103C55.5349 18.7119 56.0609 18.8626 56.747 18.8626C57.1583 18.8626 57.5471 18.8009 57.9131 18.6778C58.2787 18.5546 58.6599 18.3423 59.0485 18.0411C59.079 18.3082 59.1476 18.5407 59.2466 18.7188H60.3519C60.2222 18.5068 60.1307 18.2805 60.0849 18.0478ZM58.9571 16.2678C58.9571 16.6853 58.9037 17.007 58.7893 17.2197C58.637 17.5003 58.4083 17.719 58.0883 17.8768C57.7682 18.0342 57.4024 18.1162 56.9983 18.1162C56.5868 18.1162 56.2743 18.0342 56.0609 17.8631C55.8475 17.6918 55.7409 17.4796 55.7409 17.2263C55.7409 17.062 55.7866 16.9113 55.8854 16.7746C55.9848 16.6375 56.1219 16.5348 56.3046 16.4661C56.4876 16.3912 56.7927 16.3292 57.2271 16.2746C57.9968 16.1789 58.5759 16.0626 58.9571 15.9183V16.2678Z" fill="white"/>
<path d="M65.5649 14.4534C65.6488 14.6451 65.6869 14.9324 65.6869 15.3226V18.7324H66.7462V15.2885C66.7462 14.8503 66.7235 14.5422 66.6852 14.3644C66.6242 14.0904 66.5176 13.8577 66.3576 13.6591C66.1976 13.4605 65.9611 13.3033 65.6488 13.1799C65.3362 13.0567 64.9857 12.9954 64.6122 12.9954C63.7435 12.9954 63.0801 13.3033 62.623 13.9194V13.1253H61.6703V18.7324H62.7372V15.6719C62.7372 14.953 62.8972 14.4669 63.225 14.2067C63.5527 13.9535 63.9413 13.8235 64.3911 13.8235C64.6732 13.8235 64.9171 13.8783 65.1305 13.9947C65.3362 14.1111 65.481 14.2617 65.5649 14.4534Z" fill="white"/>
<path d="M73.5448 18.7325L70.9231 15.2066L73.3085 13.1255H71.9367L69.4294 15.4054V10.9893H68.3699V18.7325H69.4294V16.5076L70.176 15.864L72.2416 18.7325H73.5448Z" fill="white"/>
<path d="M46.427 24.2367H49.2699V31.0693H50.4055V24.2367H53.256V23.3262H46.427V24.2367Z" fill="white"/>
<path d="M55.4589 25.5239C55.2531 25.6541 55.0319 25.914 54.788 26.3113V25.4624H53.8353V31.0694H54.8872V28.1322C54.8872 27.7282 54.9482 27.3586 55.0625 27.0233C55.1463 26.804 55.2758 26.626 55.4589 26.5031C55.6418 26.3797 55.855 26.3178 56.0838 26.3178C56.343 26.3178 56.6021 26.3866 56.8611 26.5233L57.2272 25.6401C56.8535 25.4345 56.4953 25.3325 56.1372 25.3325C55.8933 25.3325 55.6647 25.3938 55.4589 25.5239Z" fill="white"/>
<path d="M62.9661 30.3847C62.9204 30.1518 62.8973 29.5907 62.8973 28.7074V27.4407C62.8973 27.0163 62.8821 26.7287 62.8441 26.5645C62.7831 26.2974 62.6763 26.0851 62.5165 25.9139C62.3639 25.7429 62.12 25.5994 61.7846 25.4895C61.457 25.3731 61.0226 25.3185 60.489 25.3185C59.9478 25.3185 59.4753 25.3867 59.0714 25.5169C58.6599 25.654 58.3475 25.8388 58.1339 26.0851C57.9204 26.3317 57.7604 26.6536 57.669 27.0506L58.7056 27.1809C58.8199 26.7766 58.9951 26.503 59.2314 26.3453C59.4677 26.188 59.841 26.1126 60.3365 26.1126C60.87 26.1126 61.2741 26.2222 61.5407 26.4345C61.739 26.5986 61.838 26.8656 61.838 27.2559C61.838 27.29 61.838 27.3721 61.8304 27.5025C61.4265 27.6323 60.7939 27.7419 59.9402 27.8309C59.521 27.8788 59.2087 27.9268 59.0029 27.9747C58.7209 28.05 58.4694 28.1528 58.2407 28.2896C58.0121 28.4266 57.8292 28.6114 57.6919 28.8374C57.5548 29.0635 57.486 29.3165 57.486 29.5907C57.486 30.063 57.6768 30.4463 58.0424 30.7472C58.416 31.049 58.9419 31.1993 59.6278 31.1993C60.0395 31.1993 60.428 31.1377 60.7939 31.0145C61.1597 30.8914 61.5407 30.679 61.9295 30.3778C61.9678 30.638 62.0361 30.8707 62.1278 31.0557H63.2329C63.1033 30.8435 63.0116 30.6174 62.9661 30.3847ZM61.8456 28.5978C61.8456 29.0152 61.7924 29.337 61.678 29.5494C61.5255 29.83 61.2968 30.0494 60.9768 30.2064C60.6566 30.3644 60.2907 30.4463 59.887 30.4463C59.4753 30.4463 59.1629 30.3644 58.9495 30.193C58.736 30.0216 58.6294 29.8096 58.6294 29.5565C58.6294 29.392 58.6751 29.2413 58.7743 29.1044C58.8733 28.9673 59.0104 28.865 59.1934 28.7962C59.3761 28.721 59.6811 28.6593 60.1155 28.6047C60.8853 28.5088 61.4644 28.3922 61.8456 28.2487V28.5978Z" fill="white"/>
<path d="M69.2462 25.9961C69.086 25.7975 68.8501 25.6401 68.5374 25.517C68.225 25.3938 67.8743 25.3325 67.5011 25.3325C66.632 25.3325 65.9691 25.6401 65.5118 26.2565V25.4624H64.5591V31.0761H65.626V28.0158C65.626 27.2973 65.786 26.8109 66.1138 26.551C66.4415 26.2975 66.8303 26.1673 67.2799 26.1673C67.5618 26.1673 67.8057 26.2222 68.0193 26.3385C68.225 26.4551 68.3699 26.6056 68.4535 26.7973C68.5374 26.989 68.5755 27.2766 68.5755 27.6669V31.0761H69.635V27.6256C69.635 27.1874 69.6121 26.8795 69.574 26.7016C69.513 26.4275 69.4064 26.1949 69.2462 25.9961Z" fill="white"/>
<path d="M75.0616 28.105C74.7643 27.9955 74.2384 27.8445 73.4914 27.6669C72.9731 27.5436 72.6609 27.4614 72.5541 27.4273C72.3711 27.3586 72.2338 27.2766 72.1501 27.1738C72.0663 27.0712 72.0206 26.9615 72.0206 26.8385C72.0206 26.6468 72.1272 26.4754 72.3328 26.3318C72.5463 26.1882 72.8894 26.1127 73.377 26.1127C73.7885 26.1127 74.1012 26.1882 74.3299 26.3523C74.5585 26.5168 74.6957 26.7422 74.7414 27.0302L75.7779 26.9001C75.7092 26.5374 75.5875 26.2495 75.4121 26.0304C75.229 25.8182 74.9624 25.6472 74.5889 25.517C74.2231 25.3868 73.7885 25.3253 73.3009 25.3253C72.9731 25.3253 72.6682 25.3666 72.3863 25.4417C72.1043 25.5239 71.8833 25.6131 71.7157 25.7226C71.4946 25.8661 71.327 26.0444 71.1974 26.2565C71.0677 26.4689 71.0068 26.6945 71.0068 26.948C71.0068 27.2217 71.0831 27.4752 71.2355 27.701C71.3879 27.927 71.6165 28.105 71.9136 28.2351C72.2187 28.3651 72.7521 28.5158 73.5297 28.6935C74.1087 28.8239 74.467 28.9333 74.6119 29.0153C74.8177 29.1387 74.9243 29.3099 74.9243 29.5225C74.9243 29.7615 74.8101 29.9672 74.5738 30.1452C74.3375 30.323 73.9792 30.4122 73.4914 30.4122C73.0036 30.4122 72.6302 30.3095 72.3635 30.111C72.0967 29.9055 71.9367 29.6181 71.8757 29.2414L70.8314 29.3921C70.9458 29.9875 71.2202 30.4394 71.6396 30.7473C72.0585 31.0491 72.6835 31.1994 73.4914 31.1994C73.9792 31.1994 74.4213 31.1175 74.8101 30.9666C75.1987 30.8161 75.496 30.5972 75.7016 30.3164C75.8999 30.0355 76.0067 29.7345 76.0067 29.4196C76.0067 29.0909 75.9228 28.8239 75.755 28.6048C75.5875 28.3859 75.3587 28.2215 75.0616 28.105Z" fill="white"/>
<path d="M78.7958 24.2369C78.9256 24.1137 79.1541 24.0519 79.4743 24.0519C79.6724 24.0519 79.8782 24.0726 80.0992 24.1068L80.2592 23.2784C79.8934 23.2166 79.5656 23.1825 79.2683 23.1825C78.8036 23.1825 78.4455 23.2645 78.1861 23.4155C77.927 23.5726 77.7441 23.7713 77.6451 24.0176C77.5687 24.2024 77.5307 24.4833 77.5307 24.8595V25.4554H76.5933V26.1949H77.5231V31.0625H78.5977V26.1949H79.8172V25.4488H78.5977V24.9282C78.5977 24.593 78.6665 24.3602 78.7958 24.2369Z" fill="white"/>
<path d="M86.0062 28.2489C86.0062 27.3245 85.7394 26.6056 85.2135 26.0924C84.6877 25.5787 84.0092 25.3253 83.1711 25.3253C82.3096 25.3253 81.6084 25.5855 81.0674 26.1058C80.5262 26.626 80.2594 27.3586 80.2594 28.3035C80.2594 29.2207 80.5262 29.9262 81.0596 30.4327C81.5933 30.9394 82.3174 31.1925 83.2318 31.1925C83.9636 31.1925 84.558 31.0351 85.023 30.7201C85.4879 30.4055 85.808 29.9603 85.9833 29.3854L84.8935 29.2619C84.7333 29.6589 84.5124 29.9535 84.2152 30.1382C83.9407 30.323 83.613 30.4122 83.2241 30.4122C82.706 30.4122 82.2716 30.2479 81.9209 29.9193C81.578 29.5908 81.3797 29.1181 81.3418 28.5024H85.9985C86.0062 28.3923 86.0062 28.3035 86.0062 28.2489ZM81.418 27.7217C81.4562 27.2353 81.6389 26.845 81.9669 26.551C82.3019 26.2565 82.706 26.1127 83.1938 26.1127C83.7272 26.1127 84.1692 26.2975 84.5045 26.6602C84.718 26.8933 84.8552 27.2491 84.9009 27.7217H81.418Z" fill="white"/>
<path d="M88.925 25.5239C88.7192 25.6541 88.4982 25.914 88.2543 26.3113V25.4624H87.3018V31.0694H88.3535V28.1322C88.3535 27.7282 88.4143 27.3586 88.5287 27.0233C88.6124 26.804 88.7423 26.626 88.925 26.5031C89.1079 26.3797 89.3214 26.3178 89.5501 26.3178C89.8092 26.3178 90.0682 26.3866 90.3273 26.5233L90.6931 25.6401C90.3197 25.4345 89.9614 25.3325 89.6034 25.3325C89.3594 25.3325 89.1307 25.3938 88.925 25.5239Z" fill="white"/>
</svg>

<svg xmlns="http://www.w3.org/2000/svg" width="100" height="42" fill="none"><path fill="#fff" d="m38.56 10.93-14.9-5.89-14.9 5.89v3.42h29.8v-3.42ZM16.42 16.61c.44 0 .8-.32.8-.72 0-.4-.36-.72-.8-.72H11.7c-.45 0-.8.32-.8.72 0 .4.35.72.8.72h.26v10.27h-.26c-.45 0-.8.32-.8.72 0 .4.35.72.8.72h4.72c.44 0 .8-.32.8-.72 0-.4-.36-.72-.8-.72h-.27V16.6h.27ZM26.02 16.61c.45 0 .8-.32.8-.72 0-.4-.35-.72-.8-.72H21.3c-.44 0-.8.32-.8.72 0 .4.36.72.8.72h.27v10.27h-.27c-.44 0-.8.32-.8.72 0 .4.36.72.8.72h4.72c.45 0 .8-.32.8-.72 0-.4-.35-.72-.8-.72h-.26V16.6h.26ZM35.78 16.61c.44 0 .8-.32.8-.72 0-.4-.36-.72-.8-.72h-4.73c-.44 0-.8.32-.8.72 0 .4.36.72.8.72h.27v10.27h-.27c-.44 0-.8.32-.8.72 0 .4.36.72.8.72h4.73c.44 0 .8-.32.8-.72 0-.4-.36-.72-.8-.72h-.27V16.6h.27ZM9.52 30.92H37.8c.42 0 .76-.31.76-.69v-.4c0-.38-.34-.7-.76-.7H9.52c-.42 0-.76.32-.76.7v.4c0 .38.34.69.76.69ZM39.78 31.74H7.54c-.42 0-.76.3-.76.68v.62c0 .38.34.69.76.69h32.24c.42 0 .76-.31.76-.69v-.62c0-.37-.34-.68-.76-.68ZM53.12 15.32a2.28 2.28 0 0 0-1.2-.7c.4-.19.7-.42.9-.71a1.66 1.66 0 0 0-.04-1.96 2.01 2.01 0 0 0-.93-.73 4.4 4.4 0 0 0-1.59-.23h-3.23v7.74h3.28c.55 0 1.01-.04 1.4-.13.37-.09.68-.21.94-.38.25-.17.46-.4.63-.72.17-.31.26-.65.26-1.01 0-.46-.14-.85-.42-1.17Zm-4.96-3.41h1.74c.61 0 1.05.03 1.3.1.26.08.46.21.6.41.13.2.2.42.2.68 0 .27-.08.5-.22.68-.15.17-.37.3-.66.38-.22.06-.58.09-1.09.09h-1.87V11.9Zm4.02 5.23c-.11.2-.26.34-.43.44-.18.1-.4.17-.66.2-.15.03-.41.04-.78.04h-2.15v-2.66h2c.55 0 .97.04 1.26.13.29.09.52.24.69.45.16.21.24.47.24.75 0 .25-.05.46-.17.65ZM60.08 18.05a12 12 0 0 1-.06-1.68V15.1c0-.42-.02-.7-.06-.87a1.37 1.37 0 0 0-.32-.65c-.16-.17-.4-.32-.74-.43a3.98 3.98 0 0 0-1.3-.17c-.53 0-1 .07-1.41.2-.41.14-.72.32-.94.57-.21.24-.37.57-.46.96l1.03.13c.12-.4.3-.67.53-.83.24-.16.61-.23 1.1-.23.54 0 .94.1 1.21.32.2.16.3.43.3.82l-.01.25c-.4.13-1.04.24-1.9.32-.41.05-.72.1-.93.15-.28.07-.53.18-.76.31a1.6 1.6 0 0 0-.55.55c-.14.23-.2.48-.2.75 0 .48.19.86.55 1.16.37.3.9.45 1.59.45a3.63 3.63 0 0 0 2.3-.82c.03.27.1.5.2.68h1.1a2.05 2.05 0 0 1-.27-.67Zm-1.12-1.78c0 .42-.06.74-.17.95-.15.28-.38.5-.7.66-.32.15-.69.24-1.1.24-.4 0-.72-.09-.93-.26a.79.79 0 0 1-.17-1.09c.1-.13.23-.24.41-.3.19-.08.5-.14.93-.2.77-.1 1.35-.2 1.73-.35v.35ZM65.56 14.45c.09.2.13.48.13.87v3.41h1.06V15.3c0-.44-.03-.75-.06-.93-.07-.27-.17-.5-.33-.7-.16-.2-.4-.36-.71-.48A2.82 2.82 0 0 0 64.6 13c-.87 0-1.53.3-1.99.92v-.8h-.95v5.61h1.07v-3.06c0-.72.16-1.2.48-1.46a1.85 1.85 0 0 1 1.91-.22c.2.12.35.27.43.46ZM73.54 18.73l-2.62-3.52 2.39-2.08h-1.37l-2.51 2.28v-4.42h-1.06v7.74h1.06v-2.22l.75-.65 2.06 2.87h1.3ZM46.43 24.24h2.84v6.83h1.14v-6.83h2.85v-.91h-6.83v.9ZM55.46 25.52c-.2.13-.43.4-.67.8v-.86h-.95v5.6h1.05v-2.93c0-.4.06-.77.17-1.1.09-.23.22-.4.4-.53.18-.12.4-.18.62-.18.26 0 .52.07.78.2l.37-.88c-.38-.2-.73-.3-1.1-.3-.24 0-.47.05-.67.18ZM62.97 30.38c-.05-.23-.07-.79-.07-1.67v-1.27c0-.42-.02-.71-.06-.88a1.37 1.37 0 0 0-.32-.65c-.16-.17-.4-.31-.74-.42a3.98 3.98 0 0 0-1.3-.17c-.53 0-1 .07-1.4.2-.42.13-.73.32-.95.57-.21.24-.37.56-.46.96l1.04.13c.11-.4.29-.68.52-.83.24-.16.61-.24 1.1-.24.54 0 .94.11 1.21.32.2.17.3.44.3.83l-.01.24c-.4.13-1.04.24-1.89.33-.42.05-.73.1-.94.14-.28.08-.53.18-.76.32a1.6 1.6 0 0 0-.55.55c-.14.22-.2.48-.2.75 0 .47.19.86.55 1.16.38.3.9.45 1.59.45a3.63 3.63 0 0 0 2.3-.82c.04.26.1.5.2.68h1.1a2.04 2.04 0 0 1-.26-.68Zm-1.12-1.78c0 .42-.06.74-.17.95-.15.28-.38.5-.7.66-.32.15-.69.24-1.1.24-.4 0-.72-.09-.93-.26a.79.79 0 0 1-.18-1.09c.1-.13.24-.24.42-.3a4 4 0 0 1 .93-.2c.77-.1 1.34-.2 1.73-.35v.35ZM69.25 26c-.16-.2-.4-.36-.71-.48a2.82 2.82 0 0 0-1.04-.19c-.87 0-1.53.31-1.99.93v-.8h-.95v5.62h1.07v-3.06c0-.72.16-1.2.48-1.47a1.85 1.85 0 0 1 1.9-.21c.21.12.36.27.44.46.09.19.13.48.13.87v3.4h1.06v-3.44c0-.44-.03-.75-.07-.93-.06-.27-.16-.5-.32-.7ZM75.06 28.1c-.3-.1-.82-.26-1.57-.43a18 18 0 0 1-.94-.24.93.93 0 0 1-.4-.26.52.52 0 0 1-.13-.33c0-.2.1-.36.31-.5.22-.15.56-.23 1.05-.23.4 0 .72.08.95.24a1 1 0 0 1 .41.68l1.04-.13a1.95 1.95 0 0 0-.37-.87 1.86 1.86 0 0 0-.82-.51 3.87 3.87 0 0 0-2.87.2c-.23.15-.4.32-.52.54a1.32 1.32 0 0 0 .04 1.44c.15.23.38.4.67.54.3.13.84.28 1.62.45.58.13.94.24 1.08.33.2.12.31.29.31.5 0 .24-.11.45-.35.63-.23.17-.6.26-1.08.26-.49 0-.86-.1-1.13-.3a1.3 1.3 0 0 1-.48-.87l-1.05.15c.12.6.39 1.05.81 1.36.42.3 1.04.45 1.85.45.49 0 .93-.08 1.32-.23.39-.15.69-.37.9-.65.19-.28.3-.59.3-.9 0-.33-.09-.6-.26-.82-.16-.21-.4-.38-.69-.5ZM78.8 24.24c.13-.13.35-.19.67-.19.2 0 .4.02.63.06l.16-.83a6 6 0 0 0-1-.1c-.46 0-.81.08-1.07.24-.26.15-.45.35-.54.6-.08.18-.12.46-.12.84v.6h-.94v.73h.93v4.87h1.08V26.2h1.22v-.74H78.6v-.52c0-.34.07-.57.2-.7ZM86 28.25c0-.93-.26-1.64-.79-2.16a2.8 2.8 0 0 0-2.04-.76 2.9 2.9 0 0 0-2.1.78c-.54.52-.81 1.25-.81 2.2 0 .91.27 1.62.8 2.12s1.26.76 2.17.76c.73 0 1.33-.15 1.8-.47.46-.31.78-.76.95-1.33l-1.09-.13c-.16.4-.38.7-.67.88-.28.18-.6.27-1 .27-.51 0-.95-.16-1.3-.5-.34-.32-.54-.8-.58-1.4H86v-.26Zm-4.58-.53a1.68 1.68 0 0 1 1.77-1.6c.54 0 .98.18 1.31.54.22.23.36.59.4 1.06h-3.48ZM88.92 25.52c-.2.13-.42.4-.67.8v-.86h-.95v5.6h1.05v-2.93c0-.4.06-.77.18-1.1.08-.23.21-.4.4-.53.18-.12.4-.18.62-.18.26 0 .52.07.78.2l.36-.88c-.37-.2-.73-.3-1.09-.3-.24 0-.47.05-.67.18Z"/></svg>
